symbols/web/whatshot/materialsymbolsoutlined/whatshot_wght700_48px.svg

<svg xmlns="http://www.w3.org/2000/svg" height="48" width="48"><path d="M24 45.25q-3.6 0-6.85-1.1-3.25-1.1-5.95-3.2l3.4-3.4q2.1 1.45 4.525 2.225 2.425.775 4.875.775 7 0 11.775-4.775T40.55 24q0-7-4.775-11.775T24 7.45q-7 0-11.775 4.775T7.45 24h-4.7q0-4.4 1.675-8.25Q6.1 11.9 9 9q2.9-2.9 6.75-4.6Q19.6 2.7 24 2.7t8.275 1.7q3.875 1.7 6.75 4.575t4.575 6.75Q45.3 19.6 45.3 24t-1.7 8.275q-1.7 3.875-4.575 6.75t-6.75 4.55Q28.4 45.25 24 45.25Zm-17.45-9.2 8.25-8.2 6.35 5.55L32.1 22.45v6.2h3.55V16.6H23.6v3.55h6.2l-8.75 8.7-6.35-5.55-9.85 9.9q.4.85.775 1.5t.925 1.35ZM24 24Z"/></svg>

<svg xmlns="http://www.w3.org/2000/svg" height="48" width="48"><path d="M24 45.25Q20.45 45.25 17.175 44.15Q13.9 43.05 11.2 40.95L14.6 37.55Q16.7 39 19.125 39.775Q21.55 40.55 24.05 40.55Q31 40.55 35.775 35.775Q40.55 31 40.55 24Q40.55 17 35.775 12.225Q31 7.45 24 7.45Q17 7.45 12.225 12.225Q7.45 17 7.45 24H2.75Q2.75 19.6 4.425 15.75Q6.1 11.9 9 9Q11.9 6.1 15.75 4.4Q19.6 2.7 24 2.7Q28.4 2.7 32.275 4.4Q36.15 6.1 39.025 8.975Q41.9 11.85 43.6 15.725Q45.3 19.6 45.3 24Q45.3 28.4 43.6 32.275Q41.9 36.15 39.025 39.025Q36.15 41.9 32.275 43.575Q28.4 45.25 24 45.25ZM5.65 36.95Q4.95 36.3 4.5 35.825Q4.05 35.35 3.4 34.7L14.7 23.3L21.05 28.85L29.8 20.15H23.6V16.6H35.65V28.65H32.1V22.45L21.15 33.4L14.8 27.85ZM21.65 24.65Q21.65 24.65 21.65 24.65Q21.65 24.65 21.65 24.65Q21.65 24.65 21.65 24.65Q21.65 24.65 21.65 24.65Q21.65 24.65 21.65 24.65Q21.65 24.65 21.65 24.65Q21.65 24.65 21.65 24.65Q21.65 24.65 21.65 24.65Q21.65 24.65 21.65 24.65Q21.65 24.65 21.65 24.65Z"/></svg>
